core/assets/icons/internet_tv.crossed_out.svg

<svg width="24" height="24" viewBox="0 0 24 24" xmlns="http://www.w3.org/2000/svg"><g id="internet-TV=crossed-out" clip-path="url(#clip0_2050_5465)"><g id="internet&amp;TV"><path id="Vector" d="M20.0858 24.0001L21.5 22.5859L19.5215 20.6074L18.186 22.1003L20.0858 24.0001Z"/><path id="Vector_2" d="M9.8776 10.9634L1.91418 3L0.5 4.41425L2.49998 6.41423V20C2.49998 20.2634 2.60667 20.5209 2.79289 20.7071C2.97911 20.8934 3.23667 21 3.49998 21H13.8296L12.0405 19H4.49998V8.41423L8.32664 12.2409L8.4658 12.1075C8.90837 11.6833 9.38456 11.3086 9.8776 10.9634Z"/><path id="Vector_3" d="M19.5001 7.00007V9.26624C20.1888 9.45173 20.8569 9.7016 21.5001 10.0114V6.00013C21.5001 5.73676 21.3934 5.47919 21.2071 5.29298C21.021 5.10682 20.7634 5.00013 20.5001 5.00013H14.9142L17.2071 2.70722L15.793 1.29297L12.0858 5.00013H11.9143L8.20714 1.29298L6.79296 2.70723L9.08587 5.00013H6.74243L8.74237 7.00007H19.5001V7.00007Z"/><path id="Vector_4" d="M16.5002 18.5C15.8706 18.5002 15.3158 18.7968 14.9492 19.2516L16.5002 20.9853L18.0511 19.2516C17.6846 18.7968 17.1298 18.5002 16.5002 18.5Z"/><path id="Vector_5" d="M16.5 14.6797C14.8925 14.68 13.4376 15.3315 12.3845 16.3848L13.7271 17.8857C13.7529 17.8582 13.7723 17.8253 13.799 17.7986C14.4934 17.1057 15.442 16.6802 16.5 16.6796C17.558 16.6802 18.5066 17.1057 19.201 17.7986C19.2277 17.8253 19.2471 17.8582 19.2729 17.8857L20.6155 16.3848C19.5624 15.3315 18.1075 14.68 16.5 14.6797Z"/><path id="Vector_6" d="M21.8276 15.0299L23.1595 13.5411C21.4285 11.8842 19.086 10.8607 16.5001 10.8604C13.9141 10.8607 11.5716 11.8842 9.84058 13.5411L11.1725 15.0299C12.5518 13.6877 14.4235 12.8608 16.5001 12.8603C18.5767 12.8608 20.4484 13.6877 21.8276 15.0299Z"/></g></g><defs><clipPath id="clip0_2050_5465"><rect width="24" height="24"/></clipPath></defs></svg>

<svg xmlns="http://www.w3.org/2000/svg" width="24" height="24" fill="none"><g fill="#191C22" clip-path="url(#a)"><path d="m20.086 24 1.414-1.414-1.979-1.979-1.335 1.493 1.9 1.9ZM9.878 10.963 1.914 3 .5 4.414l2 2V20c0 .263.107.52.293.707.186.186.444.293.707.293h10.33l-1.79-2H4.5V8.414l3.827 3.827.139-.133c.442-.425.919-.8 1.412-1.145ZM19.5 7v2.266c.689.186 1.357.436 2 .745v-4.01c0-.264-.107-.522-.293-.708A1.006 1.006 0 0 0 20.5 5h-5.586l2.293-2.293-1.414-1.414L12.086 5h-.172L8.207 1.293 6.793 2.707 9.086 5H6.742l2 2H19.5ZM16.5 18.5c-.63 0-1.184.297-1.55.752l1.55 1.733 1.551-1.733a1.988 1.988 0 0 0-1.55-.752ZM16.5 14.68a5.803 5.803 0 0 0-4.116 1.705l1.343 1.5c.026-.027.045-.06.072-.086a3.804 3.804 0 0 1 2.701-1.12c1.058.001 2.007.427 2.701 1.12.027.026.046.06.072.087l1.343-1.501A5.803 5.803 0 0 0 16.5 14.68Z"/><path d="m21.828 15.03 1.332-1.489a9.6 9.6 0 0 0-6.66-2.68 9.6 9.6 0 0 0-6.66 2.68l1.332 1.489a7.606 7.606 0 0 1 5.328-2.17c2.077 0 3.948.828 5.328 2.17Z"/></g><defs><clipPath id="a"><path fill="#fff" d="M0 0h24v24H0z"/></clipPath></defs></svg>
